X:1
T:Ego Sum Panis
T:Juan Esquivel Barahona edit BMarble
T:Ego Sum Panis
T:Copyright © 2016 by The Choral Public Domain Library. Edition may be freely distributed, duplicated, performed or recorded.
T:Copyright © 2016 by The Choral Public Domain Library. Edition may be freely distributed, duplicated, performed or recorded.
T:Copyright © 2016 by The Choral Public Domain Library. Edition may be freely distributed, duplicated, performed or recorded.
T:Copyright © 2016 by The Choral Public Domain Library. Edition may be freely distributed, duplicated, performed or recorded.
T:Copyright © 2016 by The Choral Public Domain Library. Edition may be freely distributed, duplicated, performed or recorded.
T:Copyright © 2016 by The Choral Public Domain Library. Edition may be freely distributed, duplicated, performed or recorded.
C:Juan Esquivel Barahona
C:edit BMarble
Z:Copyright © 2016 by The Choral Public Domain Library. Edition may be freely distributed, duplicated, performed or recorded.
%%score [ 1 2 3 ( 4 5 ) ]
L:1/8
Q:1/2=88
M:4/2
K:Bb
V:1 treble nm="Soprano" snm="S."
V:2 treble nm="Alto" snm="A."
V:3 treble-8 transpose=-12 nm="Tenor" snm="T."
V:4 bass nm="Bass" snm="B."
V:5 bass 
V:1
 z16 | d12 d4 | G8 d6 c2 | B4 A2 G2 A8 | =B16 | z4 d8 d4 | d4 B8 G2 A2 | B2 A2 d8 c4 | d8 z8 | %9
w: |E- go|sum pa- nis|vi- * * *|vus|qui de|cae- lo de- *|* * * scen-|di,|
 z8 z4 G4 | C4 c8 c4 | B4 =A4 G4 A4- | A2 G2 G8 ^F4 | G4 d8 G4 | d4 d4 e8 | d8 c8 | %16
w: qui|de cae- lo|de- scen- * *||di: si quis|man- du- ca-||
 _B4 =A2 G2 A4 B4 | A4 d4 B4 c4- | c4 =B4 c8 | _B12 =A4 | G16 | z4 G8 A4 | B4 c4 d8 | c12 B2 A2 | %24
w: ve- * * * *|rit ex hoc pa-|||ne|vi- vet|in ae- ter-||
 B4 c4 d4 c2 B2 | A8 z4 B4- | B4 c4 d4 e4 | f8 B4 e4- | e4 d2 c2 B2 G2 c4- | %29
w: |num, vi-|* vet in ae-|ter- num, in|_ ae- * ter- * *|
 c4 !courtesy!=B4 c4 G4 | _B12 A4 | G4 c4 B8 | z4 e8 d2 c2 | d4 c8 =B2 A2 | =B16 || %35
w: * * num, vi-|vet in|ae- ter- num,|in ae- *|* ter- * *|num.|
[M:3/2][Q:1/2=112] z12 | z12 | z12 | z12 | z4 d4 c4 | d6 c2 A2 B2 | c4 d4 d4 | d12 | c12- | c12 | %45
w: ||||Al- le-|lu- ia, _ _|_ al- le-|lu-|ia,|_|
 z4 f4 =e4 | f6 _e2 c2 d2 | e4 c4 =B4 | c6 _B2 G2 A2 | B8 G4 | A8 G4- | G4 ^F8 | G12- | G12- | %54
w: al- le-|lu- ia, _ _|_ al- le-|lu- ia, _ _|_ al-|le- *|* lu-|ia.|_|
 G12 |] %55
w: |
V:2
 G12 G4 | D8 G6 F2 | E8 D4 G4- | G4 ^F2 =E2 F8 | G4 D8 G,4 | G8 G4 ^F4 | G4 D8 C4 | D8 G8 | %8
w: E- go|sum pa- nis|vi- vus, vi-||vus qui de|cae- lo de-|scen- * *|di, qui|
 ^F4 G6 G2 G4 | G16 | _A16 | G4 F4 E8 | D16- | D16 | z4 G8 C4 | G4 G4 _A8 | G4 ^F2 =E2 F4 G4 | %17
w: de cae- lo de-|scen-|||di:|_|si quis|man- du- ca-|ve- * * * *|
 ^F4 G4 z4 G4- | G4 G4 E4 C4 | D4 B,4 C4 D4- | D2 C2 C8 =B,4 | C8 =E8 | F4 G4 A4 B4- | B4 A4 G8- | %24
w: * rit ex|_ hoc pa- *|ne, ex hoc pa-||ne vi-|vet in ae- ter-|* num, in|
 G4 F2 E2 D4 G4- | G4 ^F4 G4 D4 | E8 D4 G4 | F2 D2 F4 G4 E2 F2 | G2 A2 B8 A4 | G8 z4 E4 | %30
w: _ ae- * * ter-|* * num, vi-|vet in ae-|ter- * * num, ae- *|* * * ter-|num, vi-|
 F4 G8 A4 | B4 A2 G2 F8 | G4 B4 B8- | B4 A4 G8- | G16 ||[M:3/2] z12 | z12 | z4 G4 F4 | %38
w: vet in ae-|ter- * * num,|in ae- ter-|* * num.|_|||Al- le-|
 G6 F2 D2 E2 | F12- | F12 | z4 B4 A4 | B6 A2 F2 G2 | A4 F4 G4 | A8 G4 | z4 A4 G4 | A12 | G4 G4 G4 | %48
w: lu- ia, _ _|_||al- le-|lu- ia, _ _|_ al- le-|lu- ia,|al- le-|lu-|ia, al- le-|
 G8 G4 | G6 F2 D2 E2 | F8 E4 | D12 | B,8 E4 | D12 | =E12 |] %55
w: lu- ia,|al- le- * *|* lu-|ia,|al- le-|lu-|ia.|
V:3
 z16 | z16 | z16 | d12 d4 | G8 d6 c2 | _B8 A4 d4- | d4 G4 g8 | g4 f4 e8 | d6 c2 B4 e4- | %9
w: |||E- go|sum pa- nis|vi- vus qui|_ de cae-|lo de- scen-|di, _ _ qui|
 e4 e4 e4 d4 | e8 f6 e2 | d6 c2 B4 c4 | F4 B4 A8 | G6 A2 B4 c4- | c4 =B4 c8 | G8 z8 | z4 d8 G4 | %17
w: _ de cae- lo|de- scen- *||di, qui de|cae- * * lo|_ de- scen-|di:|si quis|
 d4 d4 e8 | d8 c4 f4- | f4 =e4 f8 | B4 e4 d8 | =e8 c8 | d4 _e4 f4 g4 | e4 f4 e4 d2 c2 | d4 c4 z8 | %25
w: man- du- ca-|ve- rit ex|_ hoc pa-|ne, hoc pa-|ne vi-|vet in ae- ter-|* num, in ae- *|ter- num,|
 z8 z4 G4- | G4 A4 B4 c4 | d8 G4 g4- | g4 f4 g4 f2 e2 | d4 e6 d2 c4 | B4 e8 c4 | e12 d4 | %32
w: vi-|* vet in ae-|ter- num, vi-|* vet in ae- *|* ter- * *|num, in ae-|ter- num,|
 e4 g4 f8- | f8 d8- | d16 ||[M:3/2] z4 e4 d4 | e6 d2 B2 c2 | d4 e4 c4- | c4 !courtesy!=B8 | %39
w: in ae ter-|* num.|_|Al- le-|lu- ia, _ _|_ al- le-|* lu-|
 c4 _B4 A4 | B8 c4 | z4 g4 ^f4 | g6 =f2 d2 e2 | f4 c4 e4 | c12 | B4 A4 c4 | c8 c4 | z4 e4 d4 | %48
w: ia, al- le-|lu- ia,|al- le-|lu- ia, _ _|_ al- le-|lu-|ia, al- le-|lu- ia,|al- le-|
 e12 | d8 B4 | c12 | A12 | G8 c4- | c4 =B8 | c12 |] %55
w: lu-|||ia,|al- le-|* lu-|ia.|
V:4
 z16 | z16 | z16 | z16 | z8 G,8- | G,4 G,4 D,8 | G,6 F,2 E,8 | D,8 z8 | z4 G,8 C,4 | C8 C4 B,4 | %10
w: ||||E-|* go sum|pa- nis vi-|vus|qui de|cae- lo de-|
w: ||||||||||
 _A,6 G,2 F,8 | G,4 D,4 E,4 C,4 | D,16 | G,16- | G,8 C,8 | z16 | z16 | z4 G,8 C,4 | G,4 G,4 _A,8 | %19
w: scen- * *|di, de cae- lo|de-|scen-|* di:|||ex hoc|pa- * *|
w: |||||||si quis|man- du- ca-|
 G,8 F,8 | G,16 | C,8 z8 | z16 | z8 z4 G,4- | G,4 A,4 B,4 C4 | D4 D,4 G,6 F,2 | %26
w: ||ne||vi-|* vet in ae-|ter- num, in _|
w: ve- rit||ne|||||
 E,2 D,2 C,4 B,,4 E,4 | D,8 z4 C,4- | C,4 D,4 E,4 F,4 | G,8 C,8 | z4 E,8 F,4 | G,4 A,4 B,8 | %32
w: _ _ _ ae- ter-|num, vi-|* vet in ae-|ter- num,|vi- vet|in ae- ter-|
w: ||||||
 E,4 E,4 B,,4 B,4- | B,2 A,2 F,4 G,8- | G,16 ||[M:3/2] z4 C4 =B,4 | C6 _B,2 G,2 A,2 | %37
w: num, in ae- ter-|* * * num.|_|Al- le-|lu- ia, _ _|
w: |||||
 B,4 E,4 _A,4 | G,12 | F,4 B,,4 F,4 | B,,4 B,4 F,4 | _A,4 G,4 D,4 | z12 | z4 F,4 E,4 | %44
w: _ al- le-|lu-|ia, al- le-|lu- ia, al-|le- lu- ia,||al- le-|
w: |||||||
 F,6 E,2 C,2 D,2 | E,4 F,4 C,4 | F,12 | C,4 C,4 G,4 | C,6 D,2 E,2 F,2 | G,12 | F,8 C,4 | D,12 | %52
w: lu- ia, _ _|_ al- le-|lu-|ia, al- le-|lu- ia, _ _|al-|le- lu-|ia,|
w: ||||||||
 E,8 C,4 | G,12 | C,12 |] %55
w: al- le-|lu-|ia.|
w: |||
V:5
 x16 | x16 | x16 | x16 | x16 | x16 | x16 | x16 | x16 | x16 | x16 | x16 | x16 | x16 | x16 | x16 | %16
w: ||||||||||||||||
w: ||||||||||||||||
 x16 | x16 | x16 | x16 | G,4 C,4 G,8 | x16 | x16 | x16 | x16 | x16 | x16 | x16 | x16 | x16 | x16 | %31
w: |||||||||||||||
w: ||||ex hoc pa-|||||||||||
 x16 | x16 | x16 | x16 ||[M:3/2] x12 | x12 | x12 | x12 | x12 | x12 | x12 | x12 | x12 | x12 | x12 | %46
w: |||||||||||||||
w: |||||||||||||||
 x12 | x12 | x12 | x12 | x12 | x12 | x12 | x12 | x12 |] %55
w: |||||||||
w: |||||||||

